X:1
T:Title
%%score { ( 1 3 ) | 2 }
L:1/8
M:4/4
K:Bb
V:1 treble nm="Grand Piano"
V:3 treble 
V:2 bass 
V:1
 z4 z[Q:1/4=88] [DF][_D=E][=DF] | [EG]>[DF] [DF]2- [DF][Fd][EFc][DFB] | B>A A2- AF=EF | %3
 G>F F2- Fedc |[M:5/8] [DB]- [DB]3 z |[M:3/8] [DF][_D=E][=DF] |[M:4/4] B2 z2 z4 | c>F F2- FFFF | %8
 d2 [FB]2- [FB][Ge][Fd][Ec] |[M:5/8] [DB]- [DB]3 z |[M:3/8] [DB]GG |[M:4/4] B4 z G[EG][DF] | %12
 [DF]4 z [Fe][Fd][Gc] | BA d4 c2 |[M:5/8] [DB]- [DB]3 z |] %15
V:2
 z4 z [B,,B,][B,,B,][B,,B,] | [B,,B,]2 [B,,B,]2- [B,,B,][B,,B,]B,,B,, | %2
 [F,CE]2 [F,CE]2- [F,CE][F,A,C][F,A,C][F,A,C] | [F,CE]2 [F,A,C]2- [F,A,C][F,CF][F,B,F][F,A,E] | %4
[M:5/8] [B,,B,]- [B,,B,]3 z |[M:3/8] [B,,B,][B,,B,][B,,B,] | %6
[M:4/4] [B,,F,]2 [B,,B,]2- [B,,B,][B,,B,][B,,B,][B,,B,] | %7
 [F,A,E]2 [F,A,E]2- [F,A,E][F,A,C][F,B,D][F,CE] | [B,F]2 [D,B,]2- [D,B,][E,B,][F,B,][F,A,] | %9
[M:5/8] [B,,B,]- [B,,B,]3 z |[M:3/8] [B,,B,][E,B,E][E,B,E] | %11
[M:4/4] [E,G,E]4 z [E,B,E][B,,B,][B,,B,] | [B,,B,]4 z [C,A,][D,B,][E,E] | %13
 [F,DF][F,CF] [F,B,F]4 [F,A,E]2 |[M:5/8] [B,,B,]- [B,,B,]3 z |] %15
V:3
 x8 | x8 | x8 | x8 |[M:5/8] x5 |[M:3/8] x3 |[M:4/4] D->[B,DF] [DF]2- [DF][DF][_D=E][=DF] | x8 | %8
 x8 |[M:5/8] x5 |[M:3/8] x3 |[M:4/4] x8 | x8 | x8 |[M:5/8] x5 |] %15

